X:1
T:Title
%%score { 1 | 2 }
L:1/8
M:3/4
K:F
V:1 treble nm="Grand Piano"
V:2 bass 
V:1
 z2 z2[Q:1/4=100] A>B | A3 A GF | c2 c4 | [Ec]3 [EG] [_E^F]>[=EG] |[M:2/4] A4 |[M:1/4] A>B | %6
[M:3/4] A3 A GF | c2 c4 | c3 G e>d |[M:2/4] [Ec]4 |[M:1/4] [Ec]2 |[M:3/4] [Ec]>[GB] [GB]2 [Gc]2 | %12
 [GB]>[FA] [FA]4 | [Fd]3 [Fd] [DFB]>[CFA] |[M:2/4] [EG]4 |[M:1/4] [EG]2 |[M:3/4] A>c c2 F2 | %17
 [FB]>[Fc] [Fd]2 [Fd]2 | [Fc]3 [FA] [EA]>[EG] |[M:2/4] [CF]4 |] %20
V:2
 z2 z2 [F,CF]>[F,DF] | [F,CF]3 [F,CF] [F,B,C][F,A,C] | [F,A,F]2 [F,A,F]4 | %3
 [C,G,]3 [C,C] [C,C]>[C,C] |[M:2/4] [F,CF]4 |[M:1/4] [F,CF]>[F,DF] | %6
[M:3/4] [F,CF]3 [F,CF] [F,B,C][F,A,C] | [F,A,F]2 [F,A,F]4 | [G,CE]3 [G,CE] [G,CG]>[G,F] | %9
[M:2/4][K:bass] [C,G,]4 |[M:1/4] [C,G,]2 |[M:3/4] [C,G,]>[C,C] [C,C]2 [E,C]2 | [F,C]>[F,C] [F,C]4 | %13
 [B,,B,]3 [B,,B,] B,,>F, |[M:2/4] [C,C]4 |[M:1/4] [C,C]2 |[M:3/4] [F,CF]>[F,A,F] [F,A,F]2 [_E,C]2 | %17
 [D,B,]>[C,A,] [B,,B,]2 [B,,B,]2 | [C,A,]3 [C,C] [C,C]>[C,B,] |[M:2/4] [F,A,]4 |] %20

